Sweet-Rainbow/icons/kid3.svg

<?xml version="1.0" encoding="UTF-8" standalone="no"?>
<!-- Generator: Gravit.io -->

<svg
   xmlns:dc="http://purl.org/dc/elements/1.1/"
   xmlns:cc="http://creativecommons.org/ns#"
   xmlns:rdf="http://www.w3.org/1999/02/22-rdf-syntax-ns#"
   xmlns:svg="http://www.w3.org/2000/svg"
   xmlns="http://www.w3.org/2000/svg"
   xmlns:sodipodi="http://sodipodi.sourceforge.net/DTD/sodipodi-0.dtd"
   xmlns:inkscape="http://www.inkscape.org/namespaces/inkscape"
   style="isolation:isolate"
   viewBox="0 0 36 36"
   width="48"
   height="48"
   version="1.1"
   id="svg9"
   sodipodi:docname="kid3.svg"
   inkscape:version="0.92.4 (5da689c313, 2019-01-14)">
  <metadata
     id="metadata15">
    <rdf:RDF>
      <cc:Work
         rdf:about="">
        <dc:format>image/svg+xml</dc:format>
        <dc:type
           rdf:resource="http://purl.org/dc/dcmitype/StillImage" />
        <dc:title></dc:title>
      </cc:Work>
    </rdf:RDF>
  </metadata>
  <defs
     id="defs13" />
  <sodipodi:namedview
     pagecolor="#ffffff"
     bordercolor="#666666"
     borderopacity="1"
     objecttolerance="10"
     gridtolerance="10"
     guidetolerance="10"
     inkscape:pageopacity="0"
     inkscape:pageshadow="2"
     inkscape:window-width="640"
     inkscape:window-height="480"
     id="namedview11"
     showgrid="false"
     inkscape:zoom="29.365243"
     inkscape:cx="25.325443"
     inkscape:cy="32"
     inkscape:current-layer="svg9"
     units="px" />
  <linearGradient
     id="_lgradient_15"
     x1="0"
     y1="0.5"
     x2="1"
     y2="0.5"
     gradientTransform="matrix(44,0,0,44,2,2)"
     gradientUnits="userSpaceOnUse">
    <stop
       offset="0%"
       stop-opacity="1"
       style="stop-color:rgb(67,233,123)"
       id="stop2" />
    <stop
       offset="97.82608695652173%"
       stop-opacity="1"
       style="stop-color:rgb(56,249,215)"
       id="stop4" />
  </linearGradient>
  <g
     id="g826"
     transform="matrix(0.81818182,0,0,0.81818182,-1.6363637,-1.6363637)">
    <path
       id="path7"
       d="m 42.174,33.135 v 0 c 0,-1.056 0.857,-1.913 1.913,-1.913 v 0 c 1.056,0 1.913,0.857 1.913,1.913 v 0 8.082 C 46,43.857 43.857,46 41.217,46 H 6.783 C 4.143,46 2,43.857 2,41.217 V 6.783 C 2,4.143 4.143,2 6.783,2 H 41.217 C 43.857,2 46,4.143 46,6.783 v 14.089 c 0,1.056 -0.428,2.656 -0.955,3.571 l -7.016,12.183 c -0.79,1.373 -2.609,1.97 -4.059,1.334 l -22.376,-9.818 -3.31,-8.819 5.519,-9.891 8.82,-1.052 15.046,7.451 v 0 c 0.934,0.491 1.294,1.648 0.803,2.583 v 0 c -0.491,0.934 -1.648,1.294 -2.582,0.803 v 0 L 21.896,12.321 16.195,13 l -3.702,6.638 2.171,5.787 19.857,8.39 c 0.486,0.205 1.083,-0.006 1.333,-0.471 l 5.868,-10.94 c 0.249,-0.465 0.452,-1.272 0.452,-1.8 V 8.696 c 0,-1.584 -1.286,-2.87 -2.87,-2.87 H 8.696 c -1.584,0 -2.87,1.286 -2.87,2.87 v 30.608 c 0,1.584 1.286,2.87 2.87,2.87 h 30.608 c 1.584,0 2.87,-1.286 2.87,-2.87 z m -12.323,-12.6 -4.914,-2.373 -1.117,2.312 4.914,2.373 z m 1.905,0.92 -2.036,4.218 -6.82,-3.293 -1.098,2.273 6.82,3.293 -0.92,1.906 -6.82,-3.293 v 0 q -0.387,-0.187 -0.663,-0.505 v 0 0 q -0.275,-0.318 -0.408,-0.698 v 0 0 q -0.133,-0.381 -0.114,-0.801 v 0 0 q 0.018,-0.421 0.209,-0.818 v 0 l 3.135,-6.49 v 0 q 0.191,-0.397 0.509,-0.673 v 0 0 q 0.318,-0.276 0.698,-0.408 v 0 0 q 0.381,-0.133 0.801,-0.115 v 0 0 q 0.421,0.019 0.808,0.205 v 0 l 4.914,2.373 v 0 q 0.397,0.192 0.672,0.51 v 0 0 q 0.276,0.318 0.409,0.698 v 0 0 q 0.132,0.38 0.114,0.801 v 0 0 q -0.018,0.42 -0.21,0.817 z"
       inkscape:connector-curvature="0"
       style="fill:url(#_lgradient_15);fill-rule:evenodd" />
  </g>
</svg>

<?xml version="1.0" encoding="UTF-8" standalone="no"?><!-- Generator: Gravit.io --><svg xmlns="http://www.w3.org/2000/svg" xmlns:xlink="http://www.w3.org/1999/xlink" style="isolation:isolate" viewBox="0 0 48 48" width="48pt" height="48pt"><linearGradient id="_lgradient_15" x1="0" y1="0.5" x2="1" y2="0.5" gradientTransform="matrix(44,0,0,44,2,2)" gradientUnits="userSpaceOnUse"><stop offset="0%" stop-opacity="1" style="stop-color:rgb(67,233,123)"/><stop offset="97.82608695652173%" stop-opacity="1" style="stop-color:rgb(56,249,215)"/></linearGradient><path d=" M 42.174 33.135 L 42.174 33.135 C 42.174 32.079 43.031 31.222 44.087 31.222 L 44.087 31.222 C 45.143 31.222 46 32.079 46 33.135 L 46 33.135 L 46 41.217 C 46 43.857 43.857 46 41.217 46 L 6.783 46 C 4.143 46 2 43.857 2 41.217 L 2 6.783 C 2 4.143 4.143 2 6.783 2 L 41.217 2 C 43.857 2 46 4.143 46 6.783 L 46 20.872 C 46 21.928 45.572 23.528 45.045 24.443 L 38.029 36.626 C 37.239 37.999 35.42 38.596 33.97 37.96 L 11.594 28.142 L 8.284 19.323 L 13.803 9.432 L 22.623 8.38 L 37.669 15.831 L 37.669 15.831 C 38.603 16.322 38.963 17.479 38.472 18.414 L 38.472 18.414 C 37.981 19.348 36.824 19.708 35.89 19.217 L 35.89 19.217 L 21.896 12.321 L 16.195 13 L 12.493 19.638 L 14.664 25.425 L 34.521 33.815 C 35.007 34.02 35.604 33.809 35.854 33.344 L 41.722 22.404 C 41.971 21.939 42.174 21.132 42.174 20.604 L 42.174 8.696 C 42.174 7.112 40.888 5.826 39.304 5.826 L 8.696 5.826 C 7.112 5.826 5.826 7.112 5.826 8.696 L 5.826 39.304 C 5.826 40.888 7.112 42.174 8.696 42.174 L 39.304 42.174 C 40.888 42.174 42.174 40.888 42.174 39.304 L 42.174 33.135 Z  M 29.851 20.535 L 24.937 18.162 L 23.82 20.474 L 28.734 22.847 L 29.851 20.535 L 29.851 20.535 Z  M 31.756 21.455 L 29.72 25.673 L 22.9 22.38 L 21.802 24.653 L 28.622 27.946 L 27.702 29.852 L 20.882 26.559 L 20.882 26.559 Q 20.495 26.372 20.219 26.054 L 20.219 26.054 L 20.219 26.054 Q 19.944 25.736 19.811 25.356 L 19.811 25.356 L 19.811 25.356 Q 19.678 24.975 19.697 24.555 L 19.697 24.555 L 19.697 24.555 Q 19.715 24.134 19.906 23.737 L 19.906 23.737 L 23.041 17.247 L 23.041 17.247 Q 23.232 16.85 23.55 16.574 L 23.55 16.574 L 23.55 16.574 Q 23.868 16.298 24.248 16.166 L 24.248 16.166 L 24.248 16.166 Q 24.629 16.033 25.049 16.051 L 25.049 16.051 L 25.049 16.051 Q 25.47 16.07 25.857 16.256 L 25.857 16.256 L 30.771 18.629 L 30.771 18.629 Q 31.168 18.821 31.443 19.139 L 31.443 19.139 L 31.443 19.139 Q 31.719 19.457 31.852 19.837 L 31.852 19.837 L 31.852 19.837 Q 31.984 20.217 31.966 20.638 L 31.966 20.638 L 31.966 20.638 Q 31.948 21.058 31.756 21.455 L 31.756 21.455 L 31.756 21.455 Z " fill-rule="evenodd" fill="url(#_lgradient_15)"/></svg>
